icons/pm2.svg

<svg viewBox="0 0 24 24" xmlns="http://www.w3.org/2000/svg" xml:space="preserve" style="fill-rule:evenodd;clip-rule:evenodd;stroke-linejoin:round;stroke-miterlimit:2">
    <clipPath id="a">
        <path d="M22.968 12.023c.006.474-.119.951-.374 1.373l-3.689 6.107A3.103 3.103 0 0 1 16.251 21l-.898-1.437-.009-.011a.54.54 0 0 0-.906.548L15 21h-1.375l-2.504-4.142a3.202 3.202 0 0 0-2.739-1.546l-.694.001h-.006a.507.507 0 0 0 .006 1h.001a3.42 3.42 0 0 1 2.932 1.66L12.438 21h.737-1.877a.3.3 0 0 1-.26-.15c-.109-.19-.934-1.497-1.548-2.468a2.267 2.267 0 0 0-1.926-1.069H4.162a.302.302 0 0 1-.251-.135l-.57-.865h2.722l.001-.001a.514.514 0 0 0 0-.999H2.682l-.7-1.063h7.494c.831 0 1.602.43 2.039 1.137l1.923 3.113.003.004a.524.524 0 0 0 .877-.553l-.005-.013-1.938-3.159a3.203 3.203 0 0 0-2.731-1.529H1.339A2.778 2.778 0 0 1 1.02 12v-.02c.01-.424.116-.845.319-1.23h8.305a3.203 3.203 0 0 0 2.731-1.529l1.938-3.158.005-.014a.524.524 0 0 0-.877-.553l-.003.004-1.923 3.113A2.396 2.396 0 0 1 9.476 9.75H1.982l.7-1.062h3.381l.001-.001a.514.514 0 0 0 0-.999H3.341l.57-.866a.302.302 0 0 1 .251-.135h3.402A2.267 2.267 0 0 0 9.49 5.618c.614-.971 1.439-2.278 1.548-2.468a.3.3 0 0 1 .26-.15h1.877-.737l-1.817 3.027a3.422 3.422 0 0 1-2.932 1.661h-.007a.507.507 0 0 0 .006 1h.694a3.202 3.202 0 0 0 2.739-1.546L13.625 3H15l-.562.9-.002.005a.54.54 0 0 0 .908.543l.009-.01L16.251 3c1.085 0 2.092.568 2.654 1.497l3.689 6.107c.259.429.383.914.374 1.396v.023ZM18.25 7.75l-.015-.048a.53.53 0 0 1 .895-.516l.001.002 2.136 3.524a2.489 2.489 0 0 1 0 2.576l-4.046 6.676-.632-.964 3.447-5.693a2.52 2.52 0 0 0-.001-2.613L18.25 7.75Zm-.916 7.666.013-.039a.535.535 0 0 0-.87-.561l-.001.001-1.263 2.085.632.963 1.489-2.449ZM16.375 12c0-.664-.423-1.405-.828-1.991a86.304 86.304 0 0 0-1.172-1.634l-2.271 3.467a.288.288 0 0 0 0 .316l2.271 3.467s.719-.978 1.172-1.634c.412-.596.828-1.327.828-1.991Zm.869 1.563-.015.047a.53.53 0 0 0 .895.516l.001-.001.508-.85a2.486 2.486 0 0 0-.006-2.562l-2.775-4.588-.645.984 2.183 3.586a2.52 2.52 0 0 1 .012 2.602l-.158.266Zm.694-8.349.012.038a.533.533 0 0 1-.869.562l-.002-.001-.49-.813.634-.966.715 1.18Z" />
    </clipPath>
    <g clip-path="url(#a)">
        <path d="M17.818 3.125 12 12l5.818 8.875 6.057.188L23.688 3l-5.87.125Z" style="fill:#03A9F4" />
        <path d="m12.063 12 .06-.187 5.695-8.688-6.755-1.562L.688 3.688.438 12h11.625Z" style="fill:#673AB7" />
        <path d="m12.056 12 .06.178 5.702 8.697-1.318 2.188-15.437-2.125L.438 12h11.618Z" style="fill:#C51162" />
    </g>
</svg>

<?xml version="1.0" encoding="UTF-8" standalone="no"?>
<!DOCTYPE svg PUBLIC "-//W3C//DTD SVG 1.1//EN" "http://www.w3.org/Graphics/SVG/1.1/DTD/svg11.dtd">
<svg width="100%" height="100%" viewBox="0 0 24 24" version="1.1" xmlns="http://www.w3.org/2000/svg" xmlns:xlink="http://www.w3.org/1999/xlink" xml:space="preserve" xmlns:serif="http://www.serif.com/" style="fill-rule:evenodd;clip-rule:evenodd;stroke-linejoin:round;stroke-miterlimit:2;">
    <path d="M22.968,12.023C22.974,12.497 22.849,12.974 22.594,13.396C21.593,15.053 19.931,17.803 18.905,19.503C18.343,20.432 17.336,21 16.251,21L15.353,19.563C15.353,19.563 15.35,19.559 15.344,19.552C15.171,19.36 14.887,19.317 14.666,19.449C14.445,19.582 14.348,19.852 14.436,20.095C14.437,20.098 14.438,20.1 14.438,20.1L15,21L13.625,21L11.121,16.858C10.542,15.899 9.503,15.313 8.382,15.312C7.989,15.313 7.688,15.313 7.688,15.313C7.688,15.313 7.686,15.313 7.682,15.313C7.438,15.354 7.259,15.565 7.259,15.813C7.259,16.06 7.438,16.271 7.682,16.312C7.686,16.312 7.688,16.313 7.688,16.313L7.689,16.313C8.89,16.313 10.003,16.943 10.621,17.973C11.43,19.321 12.438,21 12.438,21L13.175,21L11.298,21C11.191,21 11.092,20.943 11.038,20.85C10.929,20.66 10.104,19.353 9.49,18.382C9.076,17.717 8.347,17.312 7.564,17.313C6.283,17.313 4.44,17.313 4.162,17.313C4.061,17.313 3.967,17.262 3.911,17.178L3.341,16.313L6.063,16.313C6.063,16.313 6.063,16.312 6.064,16.312C6.293,16.255 6.454,16.049 6.454,15.813C6.454,15.576 6.293,15.37 6.064,15.313C6.063,15.313 6.063,15.313 6.063,15.313L2.682,15.313L1.982,14.25L9.476,14.25C10.307,14.25 11.078,14.68 11.515,15.387C12.292,16.646 13.438,18.5 13.438,18.5C13.438,18.5 13.439,18.501 13.441,18.504C13.611,18.698 13.897,18.74 14.115,18.602C14.334,18.465 14.42,18.189 14.318,17.951C14.314,17.942 14.313,17.938 14.313,17.938C14.313,17.938 13.214,16.146 12.375,14.779C11.793,13.829 10.758,13.25 9.644,13.25L1.339,13.25C1.133,12.859 1.027,12.43 1.02,12L1.02,11.98C1.03,11.556 1.136,11.135 1.339,10.75L9.644,10.75C10.758,10.75 11.793,10.171 12.375,9.221C13.214,7.854 14.313,6.063 14.313,6.063C14.313,6.063 14.314,6.058 14.318,6.049C14.42,5.811 14.334,5.535 14.115,5.398C13.897,5.26 13.611,5.302 13.441,5.496C13.439,5.499 13.438,5.5 13.438,5.5C13.438,5.5 12.292,7.354 11.515,8.613C11.078,9.32 10.307,9.75 9.476,9.75L1.982,9.75L2.682,8.688L6.063,8.688C6.063,8.688 6.063,8.687 6.064,8.687C6.293,8.63 6.454,8.424 6.454,8.188C6.454,7.951 6.293,7.745 6.064,7.688C6.063,7.688 6.063,7.688 6.063,7.688L3.341,7.688L3.911,6.822C3.967,6.738 4.061,6.687 4.162,6.687C4.44,6.687 6.283,6.687 7.564,6.687C8.347,6.688 9.076,6.283 9.49,5.618C10.104,4.647 10.929,3.34 11.038,3.15C11.092,3.057 11.191,3 11.298,3L13.175,3L12.438,3C12.438,3 11.43,4.679 10.621,6.027C10.003,7.057 8.89,7.687 7.689,7.688L7.688,7.688C7.688,7.688 7.686,7.688 7.682,7.688C7.438,7.729 7.259,7.94 7.259,8.188C7.259,8.435 7.438,8.646 7.682,8.687C7.686,8.687 7.688,8.688 7.688,8.688C7.688,8.688 7.989,8.688 8.382,8.688C9.503,8.687 10.542,8.101 11.121,7.142L13.625,3L15,3L14.438,3.9C14.438,3.9 14.437,3.902 14.436,3.905C14.348,4.148 14.445,4.418 14.666,4.551C14.887,4.683 15.171,4.64 15.344,4.448C15.35,4.441 15.353,4.438 15.353,4.438L16.251,3C17.336,3 18.343,3.568 18.905,4.497C19.931,6.197 21.593,8.947 22.594,10.604C22.853,11.033 22.977,11.518 22.968,12L22.968,12.023ZM18.25,7.75C18.25,7.75 18.245,7.733 18.235,7.702C18.163,7.466 18.264,7.211 18.478,7.088C18.692,6.965 18.962,7.006 19.13,7.186C19.131,7.187 19.131,7.188 19.131,7.188C19.131,7.188 20.403,9.286 21.267,10.712C21.746,11.504 21.746,12.496 21.267,13.288C19.901,15.542 17.221,19.964 17.221,19.964L16.589,19C16.589,19 18.81,15.332 20.036,13.307C20.523,12.503 20.522,11.497 20.035,10.694C19.278,9.445 18.25,7.75 18.25,7.75ZM17.334,15.416C17.334,15.416 17.339,15.402 17.347,15.377C17.425,15.146 17.336,14.891 17.131,14.758C16.925,14.625 16.656,14.649 16.477,14.816C16.476,14.817 16.476,14.817 16.476,14.817L15.213,16.902L15.845,17.865L17.334,15.416ZM16.375,12C16.375,11.336 15.952,10.595 15.547,10.009C15.094,9.353 14.375,8.375 14.375,8.375C14.375,8.375 12.561,11.144 12.104,11.842C12.041,11.938 12.041,12.062 12.104,12.158C12.561,12.856 14.375,15.625 14.375,15.625C14.375,15.625 15.094,14.647 15.547,13.991C15.959,13.395 16.375,12.664 16.375,12ZM17.244,13.563C17.244,13.563 17.238,13.579 17.229,13.61C17.157,13.846 17.257,14.101 17.471,14.224C17.685,14.348 17.956,14.307 18.124,14.126C18.125,14.125 18.125,14.125 18.125,14.125C18.125,14.125 18.363,13.727 18.633,13.275C19.105,12.486 19.103,11.5 18.627,10.713C17.583,8.987 15.852,6.125 15.852,6.125L15.207,7.109C15.207,7.109 16.509,9.248 17.39,10.695C17.876,11.493 17.881,12.494 17.402,13.297C17.308,13.455 17.244,13.563 17.244,13.563ZM17.938,5.214C17.938,5.214 17.942,5.227 17.95,5.252C18.029,5.484 17.94,5.739 17.734,5.871C17.529,6.004 17.26,5.98 17.081,5.814C17.08,5.813 17.079,5.813 17.079,5.813L16.589,5L17.223,4.034L17.938,5.214Z" style="fill:#00d9ff;fill-opacity:0.45;"/>
    <clipPath id="_clip1">
        <path d="M22.968,12.023C22.974,12.497 22.849,12.974 22.594,13.396C21.593,15.053 19.931,17.803 18.905,19.503C18.343,20.432 17.336,21 16.251,21L15.353,19.563C15.353,19.563 15.35,19.559 15.344,19.552C15.171,19.36 14.887,19.317 14.666,19.449C14.445,19.582 14.348,19.852 14.436,20.095C14.437,20.098 14.438,20.1 14.438,20.1L15,21L13.625,21L11.121,16.858C10.542,15.899 9.503,15.313 8.382,15.312C7.989,15.313 7.688,15.313 7.688,15.313C7.688,15.313 7.686,15.313 7.682,15.313C7.438,15.354 7.259,15.565 7.259,15.813C7.259,16.06 7.438,16.271 7.682,16.312C7.686,16.312 7.688,16.313 7.688,16.313L7.689,16.313C8.89,16.313 10.003,16.943 10.621,17.973C11.43,19.321 12.438,21 12.438,21L13.175,21L11.298,21C11.191,21 11.092,20.943 11.038,20.85C10.929,20.66 10.104,19.353 9.49,18.382C9.076,17.717 8.347,17.312 7.564,17.313C6.283,17.313 4.44,17.313 4.162,17.313C4.061,17.313 3.967,17.262 3.911,17.178L3.341,16.313L6.063,16.313C6.063,16.313 6.063,16.312 6.064,16.312C6.293,16.255 6.454,16.049 6.454,15.813C6.454,15.576 6.293,15.37 6.064,15.313C6.063,15.313 6.063,15.313 6.063,15.313L2.682,15.313L1.982,14.25L9.476,14.25C10.307,14.25 11.078,14.68 11.515,15.387C12.292,16.646 13.438,18.5 13.438,18.5C13.438,18.5 13.439,18.501 13.441,18.504C13.611,18.698 13.897,18.74 14.115,18.602C14.334,18.465 14.42,18.189 14.318,17.951C14.314,17.942 14.313,17.938 14.313,17.938C14.313,17.938 13.214,16.146 12.375,14.779C11.793,13.829 10.758,13.25 9.644,13.25L1.339,13.25C1.133,12.859 1.027,12.43 1.02,12L1.02,11.98C1.03,11.556 1.136,11.135 1.339,10.75L9.644,10.75C10.758,10.75 11.793,10.171 12.375,9.221C13.214,7.854 14.313,6.063 14.313,6.063C14.313,6.063 14.314,6.058 14.318,6.049C14.42,5.811 14.334,5.535 14.115,5.398C13.897,5.26 13.611,5.302 13.441,5.496C13.439,5.499 13.438,5.5 13.438,5.5C13.438,5.5 12.292,7.354 11.515,8.613C11.078,9.32 10.307,9.75 9.476,9.75L1.982,9.75L2.682,8.688L6.063,8.688C6.063,8.688 6.063,8.687 6.064,8.687C6.293,8.63 6.454,8.424 6.454,8.188C6.454,7.951 6.293,7.745 6.064,7.688C6.063,7.688 6.063,7.688 6.063,7.688L3.341,7.688L3.911,6.822C3.967,6.738 4.061,6.687 4.162,6.687C4.44,6.687 6.283,6.687 7.564,6.687C8.347,6.688 9.076,6.283 9.49,5.618C10.104,4.647 10.929,3.34 11.038,3.15C11.092,3.057 11.191,3 11.298,3L13.175,3L12.438,3C12.438,3 11.43,4.679 10.621,6.027C10.003,7.057 8.89,7.687 7.689,7.688L7.688,7.688C7.688,7.688 7.686,7.688 7.682,7.688C7.438,7.729 7.259,7.94 7.259,8.188C7.259,8.435 7.438,8.646 7.682,8.687C7.686,8.687 7.688,8.688 7.688,8.688C7.688,8.688 7.989,8.688 8.382,8.688C9.503,8.687 10.542,8.101 11.121,7.142L13.625,3L15,3L14.438,3.9C14.438,3.9 14.437,3.902 14.436,3.905C14.348,4.148 14.445,4.418 14.666,4.551C14.887,4.683 15.171,4.64 15.344,4.448C15.35,4.441 15.353,4.438 15.353,4.438L16.251,3C17.336,3 18.343,3.568 18.905,4.497C19.931,6.197 21.593,8.947 22.594,10.604C22.853,11.033 22.977,11.518 22.968,12L22.968,12.023ZM18.25,7.75C18.25,7.75 18.245,7.733 18.235,7.702C18.163,7.466 18.264,7.211 18.478,7.088C18.692,6.965 18.962,7.006 19.13,7.186C19.131,7.187 19.131,7.188 19.131,7.188C19.131,7.188 20.403,9.286 21.267,10.712C21.746,11.504 21.746,12.496 21.267,13.288C19.901,15.542 17.221,19.964 17.221,19.964L16.589,19C16.589,19 18.81,15.332 20.036,13.307C20.523,12.503 20.522,11.497 20.035,10.694C19.278,9.445 18.25,7.75 18.25,7.75ZM17.334,15.416C17.334,15.416 17.339,15.402 17.347,15.377C17.425,15.146 17.336,14.891 17.131,14.758C16.925,14.625 16.656,14.649 16.477,14.816C16.476,14.817 16.476,14.817 16.476,14.817L15.213,16.902L15.845,17.865L17.334,15.416ZM16.375,12C16.375,11.336 15.952,10.595 15.547,10.009C15.094,9.353 14.375,8.375 14.375,8.375C14.375,8.375 12.561,11.144 12.104,11.842C12.041,11.938 12.041,12.062 12.104,12.158C12.561,12.856 14.375,15.625 14.375,15.625C14.375,15.625 15.094,14.647 15.547,13.991C15.959,13.395 16.375,12.664 16.375,12ZM17.244,13.563C17.244,13.563 17.238,13.579 17.229,13.61C17.157,13.846 17.257,14.101 17.471,14.224C17.685,14.348 17.956,14.307 18.124,14.126C18.125,14.125 18.125,14.125 18.125,14.125C18.125,14.125 18.363,13.727 18.633,13.275C19.105,12.486 19.103,11.5 18.627,10.713C17.583,8.987 15.852,6.125 15.852,6.125L15.207,7.109C15.207,7.109 16.509,9.248 17.39,10.695C17.876,11.493 17.881,12.494 17.402,13.297C17.308,13.455 17.244,13.563 17.244,13.563ZM17.938,5.214C17.938,5.214 17.942,5.227 17.95,5.252C18.029,5.484 17.94,5.739 17.734,5.871C17.529,6.004 17.26,5.98 17.081,5.814C17.08,5.813 17.079,5.813 17.079,5.813L16.589,5L17.223,4.034L17.938,5.214Z"/>
    </clipPath>
    <g clip-path="url(#_clip1)">
        <path d="M17.818,3.125L12,12L17.818,20.875L23.875,21.063L23.688,3L17.818,3.125Z" style="fill:#03a9f4;"/>
        <path d="M12.063,12L12.123,11.813L17.818,3.125L11.063,1.563L0.688,3.688L0.438,12L12.063,12Z" style="fill:#673ab7;"/>
        <path d="M12.056,12L12.116,12.178L17.818,20.875L16.5,23.063L1.063,20.938L0.438,12L12.056,12Z" style="fill:#c51162;"/>
    </g>
</svg>
